!!!COM: Robert Franz
!!!CNT: Deutscher
!!!TXO: Deutsche 
!!!OTL: Gute Nacht!
!!!OPS: Op. 5
!!!ONM: No. 7
!!!ONB: Original key: d minor
!!!LYR: Joseph von Eichendorff
!!!ENC: Brian Bice
!!!YOR: Vocal Album, G. Schirmer, Inc., 1907
!!!ODT: 1846/
!!NB: Vocal melody and text only encoded.
**kern	**silbe
*clefG2	*
*k[b-e-a-]	*
*M6/8	*
*MM[andante]	*
=2	=2
4.r	.
4r	.
{8g	{Die
=3	=3
4g	Ho2hn
8g	und
8.g	Wa2l-
16g	-der
8g	schon
=4	=4
8a-	stei-
8a-}	-gen}
8r	.
4r	.
{16a-	{im-
16a-	-mer
=5	=5
8.g	tie-
16d	-fer
8d	ins
(8d	A-
8e-)	|
8f	-bend-
=6	=6
4e-}	-gold,}
8r	.
4r	.
{8g	{ein
=7	=7
4g	Vo2g-
8g	-lein
8.g	fragt
16g	in
8g	den
=8	=8
8b-	Zwei-
8b-}	-gen:}
8r	.
4r	.
{16g	{ob
16an	es
=9	=9
4b-	Lieb-
8b-	-chen
4an	gru2-
8b-	-ssen
=10	=10
[4.cc	sollt',
4cc]}	|}
{16g	{ob
16an	es
=11	=11
4b-	Leib-
8b-	-chen
4an	gru2-
8b-	-ssen
=12	=12
4g}	sollt'?}
8r	.
4r	.
{8g	{O
=13	=13
8.f	Vo2g-
16f	-lein,
8f	du
8.f	hast
16f	dich
8f	be-
=14	=14
8a-	-tro-
8a-}	-gen,}
8r	.
4r	.
{8a-	{sie
=15	=15
8.a	who-
16a-	-net
8a-	nicht
4a-	mehr
8a-	im
=16	=16
[4.cc-	Thal,
4cc-]}	|}
{8bn	{schwing'
=17	=17
8.ccn	auf
16ccn	dich
8ccn	zum
4ccn	Him-
8ccn	-mels-
=18	=18
(4d	-bo-
8a-)	|
4a-}	-gen,}
{16a-	{gru2ss'
16a-	sie
=19	=19
4.g	dro-
4g	-ben
8g	zum
=20	=20
4.g	letz-
4.g	-ten-
=21	=21
[4.g	-mal.
4g]}	|}
8r	.
*-	*-
